!!!OTL-incipit: 'S HAT SICH A KUKUK ZU TOD GESCHRIEN
!!!ARE: Europa, Mitteleuropa, Deutschland, Kuhlaendchen
!!!SCT: Z0085
!!!YEM: Copyright 1995, estate of Helmut Schaffrath.
**kern	**text
*ICvox	*
*M2/4	*
*k[f#]	*
*G:	*
!LO:TX:a:t=Aus dem Kuhländchen.	!
{8d	'S_hat
=1	=1
16g	ſich
16g	a
8b/	Ku-
8b/	-kuk
8b/	ʒu
=2	=2
8f#	Tod
8f#	ge-
8d}	-ſchrien
{8d	an
=3	=3
8g	ei-
8g	-ner
8b/	hoh-
8b/	-len
=4	=4
4f#	Wei-
8d}	-den,
{8dd	und
=5	=5
8dd	wenn
8dd	a
8b/	Maid
16g	ih-
16g	-ren
=6	=6
16ee	Freyer
16ee	.
8ee	lieb
8dd}	hat,
{8dd	ſo
=7	=7
8cc	thut
8cc	er
8b	von
8b	ihr
=8	=8
4a	ſchei-
8g}	-den.
==	==
!!!AGN: Sagen - Lied, Romanze, Tod
!!!ONB: ESAC (Essen Associative Code) Database: ZUCCAL
!!!AMT: simple duple
!!!AIN: vox
!!!EED: Helmut Schaffrath
!!!EEV: 1.0
!!!GTL: I. Ernste Romanzen und Sagen.
!!!URL-scan: https://www.digitale-sammlungen.de/de/view/bsb11160571?page=171
!!!ENC: Anna Maria Matuszewska
!!!EEV: 2025/01/27
*-	*-
